flaticon/weather/clouds.svg

<svg xmlns="http://www.w3.org/2000/svg" width="32" height="32" viewBox="0 0 24 24">
    <path d="M13.75 7.925781C13.453125 7.742188 13.132812 7.613281 12.800781 7.535156 12.878906 5.507812 14.546875 3.882812 16.59375 3.882812 18.632812 3.882812 20.296875 5.496094 20.386719 7.511719 18.816406 7.714844 17.59375 9.058594 17.59375 10.6875 17.59375 10.90625 17.773438 11.085938 17.996094 11.085938 18.214844 11.085938 18.394531 10.90625 18.394531 10.6875 18.394531 9.363281 19.472656 8.285156 20.796875 8.285156 22.121094 8.285156 23.199219 9.363281 23.199219 10.6875 23.199219 10.90625 23.378906 11.085938 23.601562 11.085938 23.820312 11.085938 24 10.90625 24 10.6875 24 9.054688 22.769531 7.703125 21.1875 7.511719 21.097656 5.054688 19.074219 3.082031 16.59375 3.082031 14.136719 3.082031 12.128906 5.019531 12.003906 7.449219 11.78125 7.453125 11.554688 7.480469 11.332031 7.53125 10.5 7.726562 9.792969 8.234375 9.34375 8.964844 9.304688 9.027344 9.269531 9.089844 9.238281 9.152344 8.085938 8.921875 6.898438 9.328125 6.136719 10.25 5.621094 10.878906 5.386719 11.644531 5.414062 12.394531 3.558594 12.0625 1.675781 12.886719.671875 14.535156.03125 15.585938-.160156 16.824219.132812 18.019531.425781 19.210938 1.164062 20.222656 2.214844 20.859375 2.28125 20.898438 2.351562 20.917969 2.421875 20.917969 2.558594 20.917969 2.6875 20.851562 2.765625 20.726562 2.878906 20.539062 2.820312 20.292969 2.628906 20.175781 1.761719 19.648438 1.152344 18.816406.910156 17.828125.667969 16.839844.828125 15.820312 1.355469 14.953125 2.234375 13.503906 3.9375 12.824219 5.558594 13.246094 5.734375 13.820312 6.074219 14.351562 6.574219 14.761719 6.648438 14.820312 6.738281 14.851562 6.828125 14.851562 6.941406 14.851562 7.058594 14.800781 7.136719 14.707031 7.277344 14.535156 7.253906 14.28125 7.082031 14.140625 6.675781 13.808594 6.410156 13.363281 6.289062 12.890625 6.285156 12.882812 6.285156 12.878906 6.285156 12.871094 6.105469 12.160156 6.25 11.371094 6.753906 10.761719 7.296875 10.101562 8.128906 9.792969 8.949219 9.910156 8.835938 10.390625 8.832031 10.890625 8.949219 11.382812 8.992188 11.566406 9.15625 11.691406 9.339844 11.691406 9.367188 11.691406 9.398438 11.6875 9.429688 11.679688 9.644531 11.628906 9.777344 11.414062 9.726562 11.199219 9.582031 10.574219 9.6875 9.929688 10.023438 9.386719 10.363281 8.839844 10.890625 8.457031 11.515625 8.3125 12.140625 8.164062 12.785156 8.269531 13.332031 8.605469 13.875 8.945312 14.257812 9.472656 14.402344 10.097656 14.453125 10.3125 14.667969 10.449219 14.886719 10.398438 15.101562 10.347656 15.234375 10.132812 15.183594 9.914062 14.988281 9.082031 14.480469 8.375 13.75 7.925781zM21.976562 17.523438C21.792969 15.929688 20.4375 14.6875 18.796875 14.6875 17.03125 14.6875 15.59375 16.125 15.59375 17.890625 15.59375 18.113281 15.773438 18.292969 15.996094 18.292969 16.214844 18.292969 16.394531 18.113281 16.394531 17.890625 16.394531 16.566406 17.472656 15.488281 18.796875 15.488281 20 15.488281 20.992188 16.378906 21.167969 17.53125 20.046875 17.734375 19.195312 18.714844 19.195312 19.894531 19.195312 20.113281 19.375 20.292969 19.597656 20.292969 19.816406 20.292969 19.996094 20.113281 19.996094 19.894531 19.996094 19.011719 20.714844 18.292969 21.597656 18.292969 22.480469 18.292969 23.199219 19.011719 23.199219 19.894531 23.199219 20.113281 23.378906 20.292969 23.601562 20.292969 23.820312 20.292969 24 20.113281 24 19.894531 24 18.699219 23.121094 17.707031 21.976562 17.523438zM21.976562 17.523438"/>
</svg>

<svg xmlns="http://www.w3.org/2000/svg" width="32" height="32" viewBox="0 0 24 24">
    <path d="M13.75 7.926a3.187 3.187 0 0 0-.95-.39 3.8 3.8 0 0 1 3.794-3.653 3.802 3.802 0 0 1 3.793 3.629 3.209 3.209 0 0 0-2.793 3.176.401.401 0 0 0 .8 0 2.406 2.406 0 0 1 2.403-2.403 2.406 2.406 0 0 1 2.402 2.402.401.401 0 0 0 .801 0 3.204 3.204 0 0 0-2.813-3.175 4.603 4.603 0 0 0-4.593-4.43 4.604 4.604 0 0 0-4.59 4.367 3.167 3.167 0 0 0-2.766 1.703 3.194 3.194 0 0 0-3.101 1.098 3.188 3.188 0 0 0-.723 2.145 4.59 4.59 0 0 0-4.742 2.14 4.563 4.563 0 0 0-.54 3.485 4.577 4.577 0 0 0 2.083 2.84.4.4 0 0 0 .55-.133.402.402 0 0 0-.136-.551A3.78 3.78 0 0 1 .91 17.828a3.768 3.768 0 0 1 .445-2.875 3.786 3.786 0 0 1 4.204-1.707 3.143 3.143 0 0 0 1.015 1.516c.074.058.164.09.254.09a.403.403 0 0 0 .254-.71 2.37 2.37 0 0 1-.793-1.251c-.004-.008-.004-.012-.004-.02a2.395 2.395 0 0 1 2.664-2.96 3.18 3.18 0 0 0 0 1.472.4.4 0 0 0 .48.297.4.4 0 0 0 .298-.48 2.398 2.398 0 0 1 .296-1.813c.34-.547.868-.93 1.493-1.075a2.392 2.392 0 0 1 2.886 1.786.401.401 0 1 0 .781-.184 3.167 3.167 0 0 0-1.433-1.988zm0 0M21.977 17.523a3.207 3.207 0 0 0-3.18-2.835 3.208 3.208 0 0 0-3.203 3.203.401.401 0 0 0 .8 0 2.406 2.406 0 0 1 2.403-2.403c1.203 0 2.195.89 2.371 2.043a2.404 2.404 0 0 0-1.973 2.364.401.401 0 0 0 .801 0c0-.883.719-1.602 1.602-1.602.882 0 1.601.719 1.601 1.602a.401.401 0 0 0 .801 0 2.407 2.407 0 0 0-2.023-2.372zm0 0"/>
</svg>
